Catalina-light/actions/22/code-class.svg

<svg xmlns="http://www.w3.org/2000/svg" viewBox="0 0 22 22">
  <defs id="defs3051">
    <style type="text/css" id="current-color-scheme">
      .ColorScheme-Text {
        color:#4d4d4d
      }
      </style>
  </defs>
 <path 
     style="fill:currentColor;fill-opacity:1;stroke:none"      
	 class="ColorScheme-Text"
        d="M 4,4.0156241 4,7.9765618 C 4,8 3.9914085,9 5.0156253,9 L 6,9 6,13 4.0468752,13 C 4.0468752,13 3,12.977076 3,14.015625 l 0,3.9375 C 3,18 2.9770767,19 4.0156252,19 l 4.0000002,0 C 8.0156254,19 9,18.984052 9,17.984375 L 9,14 C 9,14 8.99397,13 7.9843754,13 L 7,13 7,9 10.984376,9 C 11,9 12,9.0085616 12,7.9921868 L 12,7 l 4,0 0,7 -0.999999,0 C 15,14 14,14.00603 14,15.015625 l 0,2.96875 C 14,18 13.991438,19 15.007813,19 l 3.007813,0 C 18.015626,19 19,18.998789 19,18.007812 l 0,-3.023437 C 19,15 18.99391,14 18.000001,14 L 17,14 17,7 C 17,7 17.0037,6 16.000001,6 L 12,6 12,3.9921866 C 12,4 11.993939,3 10.992188,3 L 5.0078128,3 C 5,3 4,3.0011232 4,4.0156241 Z"
     />
</svg>

<svg viewBox="0 0 22 22" xmlns="http://www.w3.org/2000/svg">
<defs>
<style id="current-color-scheme" type="text/css">.ColorScheme-Text {
        color:#363636
      }</style>
</defs>
<path class="ColorScheme-Text" d="m4 4.0156v3.9609c0 0.023438-0.0085915 1.0234 1.0156 1.0234h0.98437v4h-1.9531s-1.0469-0.022924-1.0469 1.0156v3.9375c0 0.046875-0.022923 1.0469 1.0156 1.0469h4s0.98437-0.015948 0.98437-1.0156v-3.9844s-0.00603-1-1.0156-1h-0.98438v-4h3.9844c0.015624 0 1.0156 0.0085616 1.0156-1.0078v-0.99219h4v7h-1c-1e-6 0-1 0.00603-1 1.0156v2.9688c0 0.015625-0.008562 1.0156 1.0078 1.0156h3.0078s0.98437-0.001211 0.98437-0.99219v-3.0234c0 0.015625-0.00609-0.98438-1-0.98438h-1v-7s0.0037-1-1-1h-4v-2.0078c0 0.0078134-0.006061-0.99219-1.0078-0.99219h-5.9844c-0.0078128 0-1.0078 0.0011232-1.0078 1.0156z" fill="#363636"/>
</svg>
